src/actions/22/node-transform.svg

<svg xmlns="http://www.w3.org/2000/svg" viewBox="0 0 22 22">
    <path d="M3 3v3h3V3H3zm13 0v3h3V3h-3zM4 4h1v1H4V4zm13 0h1v1h-1V4zM7 5v1h2V5H7zm3 0v1h2V5h-2zm3 0v1h2V5h-2zM5 7v2h1V7H5zm11 0v2h1V7h-1zM5 10v2h1v-2H5zm11 0v2h1v-2h-1zM5 13v2h1v-2H5zm-2 3v3h3v-3H3zm4 0v1h2v-1H7zm3 0v1h2v-1h-2zm-6 1h1v1H4v-1z" style="fill:currentColor;fill-opacity:1;stroke:none;color:#050505;opacity:.7"/>
    <path d="M13 13v2h1v-1h1v-1h-2zm4 0v1h1v1h1v-2h-2zm-4 4v2h2v-1h-1v-1h-1zm5 0v1h-1v1h2v-2h-1z" style="fill:currentColor;fill-opacity:1;stroke:none;color:#a0b6cb"/>
</svg>

<svg xmlns="http://www.w3.org/2000/svg" viewBox="0 0 22 22">
  <defs id="defs3051">
    <style type="text/css" id="current-color-scheme">
      .ColorScheme-Text {
        color:#363636;
      }
      .ColorScheme-Highlight {
        color:#3daee9;
      }
      </style>
  </defs>
 <path 
     style="fill:currentColor;fill-opacity:1;stroke:none" 
     d="M 3 3 L 3 4 L 3 5 L 3 6 L 6 6 L 6 3 L 5 3 L 3 3 z M 16 3 L 16 6 L 17 6 L 19 6 L 19 4 L 19 3 L 17 3 L 16 3 z M 4 4 L 5 4 L 5 5 L 4 5 L 4 4 z M 17 4 L 18 4 L 18 5 L 17 5 L 17 4 z M 7 5 L 7 6 L 9 6 L 9 5 L 7 5 z M 10 5 L 10 6 L 12 6 L 12 5 L 10 5 z M 13 5 L 13 6 L 15 6 L 15 5 L 13 5 z M 5 7 L 5 9 L 6 9 L 6 7 L 5 7 z M 16 7 L 16 9 L 17 9 L 17 7 L 16 7 z M 5 10 L 5 12 L 6 12 L 6 10 L 5 10 z M 16 10 L 16 12 L 17 12 L 17 10 L 16 10 z M 5 13 L 5 15 L 6 15 L 6 13 L 5 13 z M 3 16 L 3 17 L 3 18 L 3 19 L 4 19 L 5 19 L 6 19 L 6 17 L 6 16 L 5 16 L 4 16 L 3 16 z M 7 16 L 7 17 L 9 17 L 9 16 L 7 16 z M 10 16 L 10 17 L 12 17 L 12 16 L 10 16 z M 4 17 L 5 17 L 5 18 L 4 18 L 4 17 z "
     class="ColorScheme-Text"
     />
 <path 
     style="fill:currentColor;fill-opacity:1;stroke:none" 
     d="M 13 13 L 13 14 L 13 15 L 14 15 L 14 14 L 15 14 L 15 13 L 13 13 z M 17 13 L 17 14 L 18 14 L 18 15 L 19 15 L 19 13 L 18 13 L 17 13 z M 13 17 L 13 19 L 14 19 L 15 19 L 15 18 L 14 18 L 14 17 L 13 17 z M 18 17 L 18 18 L 17 18 L 17 19 L 19 19 L 19 18 L 19 17 L 18 17 z "
     class="ColorScheme-Highlight"
     />
</svg>
